X: 1
T: Honeychurch
R: reel
M: 4/4
L: 1/8
K: Emin
EF|:G2 GFG2B2|AGFED2 EF|GFGB AGFE|DB,DE E2EF|
G2 GFG2B2|AGFED2 EF|GFGE DA,B,D|1 E4 E2EF:|2 E4 E2 B2||
|:d4B4|AGAB AGEF|GFGB AGFE|DB,DE E2EF|
G2 GFG2B2|AGFED2 EF|GFGE DA,B,D|1 E4 E2 B2:|2 E4 E4:|

